X:9592
T:Light Horse March,The. BC.24
M:C|
L:1/8
Q:150
S:Benjamin Cooke MS.circa 1770, F.Kidson Coll.
R:March
O:England
A:x
Z:John Bagnall
Z:John Bagnall
K:D
A2 dd dcdB | AGFE F2 D2 | FA dd GBeg | fedc d4 :|!
|:f2 aa a2 gf |geBG E4 | e2 gg g2 fe | fdAF D4 |!
 FA d2 GBe2 | Ac f2 Bd g2| ce a2 df bg | fedc d4 :|]
